!!!COM: Gabriel Faure/
!!!CNT: Francais
!!!TXO: Francais
!!!OTL: "Chanson (from Shylock)"
!!!LYR: Haraurcourt
!!!OPR: 
!!!OPS: Op. 57
!!!ONM: No. 1
!!!ENC: Emily Thomas
!!!YOR: CD Sheet Music French Art Songs, The Ultimate Collection
!!!YOR: CD Sheet Music, LLC 2003
!!!ODT: 1889/
!!NB: Vocal melody and text encoded.
**kern	**silbe
=1	=1
*clefG2	*
*k[b-e-a-d-]	*
*M12/8	*
*MM[Allegretto]	*
1.r	.
=2	=2
1.r	.
=3	=3
{[4.a-	{Oh!
4a-]	|
8ee-	les
[2.ee-	fil-
=4	=4
2.ee-]	|
[4.ee-	-les!
8ee-]}	|}
8r	.
8r	.
=5	=5
4r	.
{8cc	{Ve-
4ee-	-nez,
8dd-	les
4cc	fil-
8a-	-les
4b-	aux
8cc	voix
=6	=6
2.cc	dou-
[2.e-	-ces!
=7	=7
4.e-_	|
8e-]}	|}
8r	.
8r	.
4r	.
8r	.
4r	.
{8e-	{C'est
=8	=8
4a-	l'heu-
8a-	-re
4b-	d'ou-
8cc	-bli-
[4.cc	-er
4cc]	|
8cc	l'or-
=9	=9
4ee-	-gueil
8ddn	et
4cc	les
8b-	ver-
[4.cc	-tus,
8cc]}	|}
8r	.
{8cc	{Et
=10	=10
4ddn	nous
8cc	re-
4b-	-gar-
8g	-der-
4a-	-ous
8b-	-e/-
4cc	-clo-
8ee-	-re
=11	=11
4ddn	dans
8cc	les
2.b-	mous-
8b-}	-ses,}
8r	.
{8g	{La
=12	=12
4.b-	fleur
4a-	des
8g	bai-
4.f	-sers
4e-	de/-
8f	-fen-
=13	=13
2.e-}	-dus.}
2.r	.
=14	=14
4r	.
8r	.
{4e-	{Les
8b-	bai-
4.b-	-sers
4a-	de/-
8g	-fen-
=15	=15
[4.cc	-dus
8cc]	|
8r	.
8cc	c'est
4ee-	Dieu
8ee-	qui
4ddn	les
8cc	or-
=16	=16
[4.b-	-don-
4b-]	|
8an	|
[4.g	-ne
8g]}	|}
8r	.
8r	.
=17	=17
{4b-	{Oh!
8ee-	les
2.ee-	fil-
4.g}	-les!}
=18	=18
4r	.
8r	.
{4.e-	{Il
4.f	fait
4g	le
8a-	prin-
=19	=19
[2.b-	-temps
4.b-]	|
4a-	pour
8b-	les
=20	=20
[2.cc	nids,
4.cc_	|
8cc]}	|}
8r	.
8r	.
=21	=21
{4.cc	{Il
4.a-	fait
4.b-	vo-
4cc	-tre
8dd-	beau-
=22	=22
4.cc	-te/
4.cc	pour
4b-	qu'el-
8cc	-le
4dd-	nous
8b-	soit
=23	=23
2.dd-	bon-
[4.cc	-ne,
8cc]}	|}
8r	.
8r	.
=24	=24
{4cc	{Nos
8cc	de/-
[4.ff	-sirs
2.ff_	|
=25	=25
4.ff]	|
4.cc	pour
4.cc	qu'ils
4b-	soient
8a-	u-
=26	=26
[1.ee-	-nis
=27	=27
2.ee-_	|
4.ee-]}	|}
4r	.
8r	.
=28	=28
4r	.
8r	.
{4.a-	{Oh!
[2.ee-	fil-
=29	=29
4.ee-]	|
4.ee-}	-les!}
4r	.
8r	.
{4ee-	{Hors
8dd-	l'a-
=30	=30
4.cc	-mour
4b-	rien
8cc	n'est
4.a-	bon
4b-	sur
8cc	la
=31	=31
2.cc	ter-
[2.e-	-re,
=32	=32
4.e-_	|
8e-]}	|}
8r	.
8r	.
4r	.
8r	.
{4.e-	{Et
=33	=33
4a-	de-
8a-	-puis
4b-	les
8cc	soirs
[4.cc	d'or
4cc]	|
8cc	jus-
=34	=34
4ee-	-qu'aux
8ddn	mat-
4cc	-in
8b-	ro-
[4.cc	-se/s
8cc]}	|}
8r	.
{8cc	{Les
=35	=35
2.b-	morts
4.b-	ne
4cc	sont
8dd-	ja-
=36	=36
4.dd-	-loux,
4a-	dans
8dd-	leur
4.dd-	paix
4cc	so-
8b-	-li-
=37	=37
2.a-	-tai-
2.g}	-re,}
=38	=38
4r	.
8r	.
{4.g	{Que
4.a-	du
4.b-	mur-
=39	=39
2.cc	-nu-
4.dd-	-re
4.ee-	|
=40	=40
[2.ee-	-des
4.ee-]	|
4.ee-	bai-
=41	=41
[1.ee-	-sers!
=42	=42
2.ee-_	|
4.ee-]}	|}
4r	.
8r	.
==	==
*-	*-
